build/service/DragOutline.svg

<svg xmlns="http://www.w3.org/2000/svg" fill="none" viewBox="0 0 24 24" focusable="false"><path d="M0 0H24V24H0z"/><path fill="#74767B" fill-rule="evenodd" d="M7.99316 7C9.09773 7 9.99316 6.10457 9.99316 5C9.99316 3.89543 9.09773 3 7.99316 3C6.8886 3 5.99316 3.89543 5.99316 5C5.99316 6.10457 6.88859 7 7.99316 7ZM16 7C17.1046 7 18 6.10457 18 5C18 3.89543 17.1046 3 16 3C14.8954 3 14 3.89543 14 5C14 6.10457 14.8954 7 16 7ZM9.99316 12C9.99316 13.1046 9.09773 14 7.99316 14C6.88859 14 5.99316 13.1046 5.99316 12C5.99316 10.8954 6.88859 10 7.99316 10C9.09773 10 9.99316 10.8954 9.99316 12ZM16 14C17.1046 14 18 13.1046 18 12C18 10.8954 17.1046 10 16 10C14.8954 10 14 10.8954 14 12C14 13.1046 14.8954 14 16 14ZM7.99316 21C9.09773 21 9.99316 20.1046 9.99316 19C9.99316 17.8954 9.09773 17 7.99316 17C6.88859 17 5.99316 17.8954 5.99316 19C5.99316 20.1046 6.88859 21 7.99316 21ZM18 19C18 20.1046 17.1046 21 16 21C14.8954 21 14 20.1046 14 19C14 17.8954 14.8954 17 16 17C17.1046 17 18 17.8954 18 19Z"/></svg>

<svg xmlns="http://www.w3.org/2000/svg" fill="none" viewBox="0 0 24 24" focusable="false"><path fill="#74767B" fill-rule="evenodd" d="M7.99 7a2 2 0 1 0 0-4c-1.11 0-2 .89-2 2a2 2 0 0 0 2 2M16 7a2 2 0 1 0 0-4c-1.11 0-2 .89-2 2a2 2 0 0 0 2 2m-6.01 5a2 2 0 1 1-4 0c0-1.11.89-2 2-2a2 2 0 0 1 2 2M16 14a2 2 0 1 0 0-4c-1.11 0-2 .89-2 2a2 2 0 0 0 2 2m-8.01 7a2 2 0 1 0 0-4c-1.11 0-2 .89-2 2a2 2 0 0 0 2 2M18 19a2 2 0 1 1-4 0c0-1.11.89-2 2-2a2 2 0 0 1 2 2"/></svg>
